X: 19300
T: J.O. Forbes, Esq. Of Corse
R: strathspey
M: 4/4
K: Dmajor
|:g,|f,>_ a, d,>_ a, g,>_ b, e,>_ g,|f,>_ a, b,>_ c d2> c2|b,>_ d a,>_ d g,>_ d f,>_ d|e,/e> e2>_ d c/_ d/_ c/_ b,/ a,/_ b,/_ a,/_ g,/|
f,>_ a, d,>_ a, g,>_ b, e,>_ g,|f,>_ a, f>_ e d2> c2|b,>_ d a,>_ d g,>_ d f,>_ g,|f,>_ d, e,>_ c, d,2> g2|
f/_ g/_ a/_ g/ f>_ d b,>_ d g>_ b|a,>_ d f>_ a a,>_ c e>_ g|f/_ g/_ a/_ g/ f>_ d b,>_ d g>_ b|
a<_ d f>_ e> d4 d>_ g|f/_ g/_ a/_ g/ f>_ d b,>_ d g>_ b|a,>_ d f>_ a a,>_ c e>_ g|
(3f_ e_ d (3c_ d_ e (3d_ a,_ g, (3f,_ g,_ a,|(3b,_ c_ d (3c_ d_ e f<_ d d:|

